X:1
T:Title
%%score { ( 1 3 ) | ( 2 4 ) }
L:1/8
M:3/8
K:Eb
V:1 treble nm="Grand Piano"
V:3 treble 
V:2 treble 
V:4 treble 
V:1
 z z[Q:1/4=100] B | [GB]2 z | [Bd]2 [FA] | z [GB]2- | [GB]2 z | [GB]2 [Ac] | [GB]2 [DF] | %7
 z [EG]2- |[M:1/4] [EG]2 |[M:1/8] [B,GB] |[M:3/8] [GB]2 z | [Bd]2 [FA] | z [GB]2- | [GB]2 z | %14
 [GB]2 [DF] | G2 z | [G,E]3- | [G,E]3 | G3 | c3 | G3 | A3 | [DF]2 [EG] | [GB]2 [FA] | [EG]3- | %25
 [EG]2 z | [DF]2 [EG] | [GB]2 [FA] | [EG]3- | [EG]3 | [EGB]2 [EBe] | [EBd] [EAc]2 | [EAc]2 [EBd] | %33
 [EAc] [EGB]2 | [GB][Fc][Ad] | eB z/ F/ | G2 F | E3 |] %38
V:2
 z z G | E,G,[G,B,G] | B,,B,B, | E,G,G, | E,G,G, | B,,B,B, | B,,B,B, | E,G,G, |[M:1/4] E,G, | %9
[M:1/8] G, |[M:3/8] E,G,[G,B,G] | B,,B,B, | E,G,G, | E,G,G, | B,,B,B, | B,,B,,B,, | E,B,,G,, | %17
 E,,3 | E3 | [E,CE]3 | E3 | [F,CF]3 | [B,,B,]2 [B,,B,] | [B,,B,]2 [B,,B,] | [E,B,]2 E, | %25
 E,2 [E,B,E]/[E,B,E]/ | [B,,B,]2 [B,,B,] | [B,,B,]2 [B,,B,] | [E,B,]E,E, | E,3 | E,2 G, | A, A,2 | %32
 A,2 A, | E, E,2 | E,A,[F,B,] | B,2 z | [B,E]2 [B,,A,B,] | [E,G,B,]3 |] %38
V:3
 x3 | z B,e | x3 | [Ac]B,B, | z B,[B,GB] | x3 | x3 | [FA]B,B, |[M:1/4] z B, |[M:1/8] x | %10
[M:3/8] z B,e | x3 | [Ac]B,B, | z B,[B,GB] | x3 | EB,[A,F] | x3 | x3 | z z B, | x3 | z z C | x3 | %22
 x3 | x3 | z z B, | B,2 G/G/ | x3 | x3 | z B,B, | B,3 | x3 | x3 | x3 | x3 | B,2 z | G2 E | x3 | %37
 x3 |] %38
V:4
 x3 | x3 | x3 | x3 | x3 | x3 | x3 | x3 |[M:1/4] x2 |[M:1/8] x |[M:3/8] x3 | x3 | x3 | x3 | x3 | %15
 x3 | x3 | x3 | z z E, | x3 | z z C, | x3 | x3 | x3 | x3 | x3 | x3 | x3 | x3 | x3 | x3 | x3 | x3 | %33
 x3 | x3 | E,G,[A,C] | x3 | x3 |] %38

